X:1
T:Somebody Else Needs a Blessing
T:Bentley DeForest Ackley
T:Somebody Else Needs a Blessing
T:Public Domain
T:Public Domain
C:Bentley DeForest Ackley
Z:Public Domain
%%score ( 1 2 ) ( 3 4 )
L:1/8
M:6/8
K:F
V:1 treble 
V:2 treble 
V:3 bass 
V:4 bass 
V:1
 [CF] | [CF]C[CF] [CA]F[FA] | [Fc][F=B][Fd] [Fc]2 [FA] | [EB][EG][EB] [FA][CG][CF] | %4
w: 1.~We’re|“count- ing” the bless- ings, our|re- cord, The won- der-|ful mer- cies like sun- beams|
w: 2.~We’ll|go, like the Sav- ior, to|the sad; With love’s heal-|ing por- tion we’ll make o-|
w: 3.~We’ll|tell the old sto- ry a-|a- gain; Sal- va- tion|for sin- ners, good will un-|
 [=B,D][CE][DF] [EG]2 [CF] | [CF]C[CF] [CA]F[FA] | [Fc][F=B][Fd] [Fc]3 | [EG]E[Ec] [F=B][FA][FB] | %8
w: out- poured; But let us|re- mem- ber while prais- ing|Some- bo- dy else|needs a bless- ing. * *|
w: thers glad, Un- til, with|fresh ver- dure, life’s des- erts|Some- bo- dy else|needs a bless- ing. Some- bo-|
w: to men, Till Gos- pel|songs e- cho from mount- ain|Some- bo- dy else|needs a bless- ing. * *|
 [Fd]3 [Ec]3 ||"^Refrain" [Fc][Fd][Fc] [FA]F[FG] | [FA]3 [FA]2 z | [Fc][Fd][Fc] [FA][CG][CF] | %12
w: ||||
w: else needs|a bless- ing, Some- bo- dy|needs a|bless- ing; We’ll let our lights|
w: ||||
 [EG]3 [Ec]2 [GB] | [FA]G[FA] [EB][^DA][EB] | [Fc][F=B][Fc] [Fd]3 | [Fc][Fd][Fc] F[FG][FA] | %16
w: ||||
w: shine to His|glo- ry di- vine, Some- bo-|else needs a bless-|ing. * * * * *|
w: ||||
 [EG]3 [CF]2 |] %17
w: |
w: |
w: |
V:2
 x | x C x F x2 | x6 | x6 | x6 | x C x F x2 | x6 | x E x4 | x6 || x4 F x | x6 | x6 | x6 | x G x4 | %14
w: |joys we||||the Lord,|||||||||
w: |com- fort||||are clad;||dy||else||||dy|
w: |gain and||||to glen;|||||||||
 x6 | x3 F x2 | x5 |] %17
w: |||
w: |||
w: |||
V:3
 [F,A,] | [F,A,][F,A,][F,A,] [F,C][F,A,][F,C] | [F,A,][F,^G,][F,B,] [F,A,]2 [F,C] | %3
 [C,C][C,C][C,C] [F,C][F,B,][F,A,] | G,G,[G,,G,=B,] [C,_B,]2 [F,A,] | %5
 [F,A,][F,A,][F,A,] [F,C][F,A,][F,C] | [F,A,][F,^G,][F,B,] [F,A,]3 | %7
 [G,C][G,C][G,C] [G,D][G,C][G,D] | [G,=B,]3 C2 _B, || [F,A,][F,B,][F,A,] [F,C][F,A,][F,B,] | %10
 (z C,A,,) (F,,A,,C,) | [F,A,][F,B,][F,A,] [F,C][F,B,][F,A,] | (z E,G,) (z D,)[E,C] | %13
 [F,C][E,C][F,C] [G,C][^F,C][G,C] | [A,C][^G,D][A,C] B,3 | [F,A,][F,B,][F,A,] [F,A,][F,B,][F,C] | %16
 [C,B,]3 [F,A,]2 |] %17
V:4
 x | x6 | x6 | x6 | G,G, x4 | x6 | x6 | x6 | x3 C,3 || x6 | ([F,A,]3 [F,A,]2) x | x6 | %12
 [C,C]3 [C,G,]2 x | x6 | x3 B,3 | x6 | x5 |] %17

